app/dist/common/images/xi-an-bright-laser-technologies-co-ltd.svg

<svg height="18" viewBox="0 0 18 18" width="18" xmlns="http://www.w3.org/2000/svg"><path d="m0 0h18v18h-18z" fill="#f0f3fa"/><path d="m5.42 5.82-.4.46.39.29c.06-.22.14-.42.22-.6zm.55-.39-.07-.07c.18-.15.35-.27.5-.36-.12.08-.28.23-.43.43zm-1.82 2.55c-.05.19-.1.38-.12.58l1.44.2a2.98 2.98 0 0 1 -.15-.49zm.22-.62.89.36v-.02c0-.19 0-.36.03-.52l-.63-.36-.29.55zm-.32 2.43c-.03-.2-.05-.4-.05-.6h1.67l.24.36zm2.18.12-2.03.55c.05.17.12.34.18.5l2.1-.82a3.84 3.84 0 0 1 -.25-.23zm-1.21 2.16a5.1 5.1 0 0 1 -.32-.47l2.1-1.21a4 4 0 0 0 .25.15zm2.34-1.37-1.89 1.9.43.37 1.7-2.16a3.92 3.92 0 0 1 -.24-.1zm-.37 2.92a4.73 4.73 0 0 1 -.53-.26l1.42-2.46.2.06-1.1 2.66zm1.35-2.62-.71 2.84c.16.05.33.08.5.1l.48-2.9-.27-.03zm.51 3h-.03l.06-2.95h.19l.41 2.9c-.2.03-.4.05-.63.05zm.47-2.99.8 2.76c.2-.07.37-.16.53-.27l-1.11-2.53zm2.18 1.59a3 3 0 0 1 -.34.46l-1.36-2.17.25-.1 1.43 1.82zm.28-.59c.06-.16.1-.32.14-.48l-1.34-1.02-.23.14 1.43 1.35zm.22-1.2v.12l-1.13-.63a4 4 0 0 0 .22-.19l.86.35c.03.12.05.24.05.35zm-.22-.87c-.07-.16-.14-.3-.2-.39-.05.08-.12.18-.22.29z" fill="#686869"/><path d="m13.34 11.5-.37.55-.49-.4c.04-.19.07-.4.08-.62l.78.46zm.29-.59-1.06-.44a2.27 2.27 0 0 0 -.11-.56l1.39.36c-.06.22-.14.44-.22.64zm.34-1.25-1.74-.25a3.52 3.52 0 0 0 -.26-.4h2.03a5.26 5.26 0 0 1 -.03.65zm-.02-1.27-2.26.3c-.1-.11-.22-.22-.33-.31l2.43-.7c.07.23.12.47.16.7zm-.34-1.23-2.5 1.03-.3-.2 2.49-1.49c.12.21.22.43.31.66zm-.63-1.16-2.39 1.88a3.41 3.41 0 0 0 -.27-.11l2.2-2.3c.17.17.32.35.46.54zm-.88-.93-1.98 2.63-.22-.06 1.64-2.97c.2.12.38.25.56.4zm-1.09-.67-1.27 3.2-.18-.02.81-3.42c.22.07.44.14.64.23zm-1.15-.35-.56 3.52h-.19l.06-3.57c.24 0 .47.02.69.05zm-1.34 0 .48 3.53h-.17l-.96-3.34c.2-.09.41-.15.65-.19zm-1.17.47 1.3 3.1-.22.04-1.59-2.68c.15-.17.32-.33.51-.46zm-.85.93 1.73 2.27-.26.1-1.75-1.75c.07-.2.17-.42.29-.62zm-.42 1.12 1.68 1.34-.28.14-1.48-.85c0-.19.03-.4.08-.62zm-.05 1.11 1.23.51-.3.23-.79-.2c-.06-.18-.1-.37-.14-.54zm6.55 4.84-.28-.21c-.09.24-.19.44-.3.6l.1.09c.15-.14.32-.3.48-.48zm-6.26-3.9.25.34.2-.28z" fill="#ea5504"/></svg>

<!-- by TradingView --><svg width="18" height="18" viewBox="0 0 18 18" xmlns="http://www.w3.org/2000/svg"><path fill="#F0F3FA" d="M0 0h18v18H0z"/><path d="m5.42 5.82-.4.46.39.29c.06-.22.14-.42.22-.6l-.21-.15ZM5.97 5.43l-.07-.07c.18-.15.35-.27.5-.36-.12.08-.28.23-.43.43ZM4.15 7.98c-.05.19-.1.38-.12.58l1.44.2a2.98 2.98 0 0 1-.15-.49l-1.17-.29ZM4.37 7.36l.89.36V7.7c0-.19 0-.36.03-.52l-.63-.36-.29.55ZM4.05 9.79c-.03-.2-.05-.4-.05-.6h1.67l.24.36-1.86.24ZM6.23 9.91l-2.03.55c.05.17.12.34.18.5l2.1-.82a3.84 3.84 0 0 1-.25-.23ZM5.02 12.07a5.1 5.1 0 0 1-.32-.47l2.1-1.21a4 4 0 0 0 .25.15l-2.03 1.53ZM7.36 10.7l-1.89 1.9.43.37 1.7-2.16a3.92 3.92 0 0 1-.24-.1ZM6.99 13.62a4.73 4.73 0 0 1-.53-.26l1.42-2.46.2.06-1.1 2.66ZM8.34 11l-.71 2.84c.16.05.33.08.5.1l.48-2.9-.27-.03ZM8.85 14h-.03l.06-2.95h.19l.41 2.9c-.2.03-.4.05-.63.05ZM9.32 11.01l.8 2.76c.2-.07.37-.16.53-.27l-1.11-2.53-.22.04ZM11.5 12.6a3 3 0 0 1-.34.46L9.8 10.89l.25-.1 1.43 1.82ZM11.78 12.01c.06-.16.1-.32.14-.48l-1.34-1.02-.23.14L11.78 12ZM12 10.81v.12l-1.13-.63a4 4 0 0 0 .22-.19l.86.35c.03.12.05.24.05.35ZM11.78 9.94c-.07-.16-.14-.3-.2-.39-.05.08-.12.18-.22.29l.42.1Z" fill="#686869"/><path d="m13.34 11.5-.37.55-.49-.4c.04-.19.07-.4.08-.62l.78.46ZM13.63 10.91l-1.06-.44a2.27 2.27 0 0 0-.11-.56l1.39.36c-.06.22-.14.44-.22.64ZM13.97 9.66l-1.74-.25a3.52 3.52 0 0 0-.26-.4H14a5.26 5.26 0 0 1-.03.65ZM13.95 8.39l-2.26.3c-.1-.11-.22-.22-.33-.31l2.43-.7c.07.23.12.47.16.7ZM13.61 7.16l-2.5 1.03-.3-.2L13.3 6.5c.12.21.22.43.31.66ZM12.98 6l-2.39 1.88a3.41 3.41 0 0 0-.27-.11l2.2-2.3c.17.17.32.35.46.54ZM12.1 5.07 10.12 7.7l-.22-.06 1.64-2.97c.2.12.38.25.56.4ZM11.01 4.4 9.74 7.6l-.18-.02.81-3.42c.22.07.44.14.64.23ZM9.86 4.05 9.3 7.57h-.19L9.17 4c.24 0 .47.02.69.05ZM8.52 4.05 9 7.58h-.17l-.96-3.34c.2-.09.41-.15.65-.19ZM7.35 4.52l1.3 3.1-.22.04-1.59-2.68c.15-.17.32-.33.51-.46ZM6.5 5.45l1.73 2.27-.26.1-1.75-1.75c.07-.2.17-.42.29-.62ZM6.08 6.57l1.68 1.34-.28.14L6 7.2c0-.19.03-.4.08-.62ZM6.03 7.68l1.23.51-.3.23-.79-.2c-.06-.18-.1-.37-.14-.54ZM12.58 12.52l-.28-.21c-.09.24-.19.44-.3.6l.1.09c.15-.14.32-.3.48-.48ZM6.32 8.62l.25.34.2-.28-.45-.06Z" fill="#EA5504"/></svg>
